Origami/64x64/apps/mumble.svg

<svg width="64" height="64" version="1" xmlns="http://www.w3.org/2000/svg">
 <path d="m31.9996 9.0045566c-5.801834 0-11.591203 1.8135474-15.495092 4.8552614-3.903688 3.041913-6.441416 7.392588-6.441416 12.23445v1.74995c-3.8750895 1.963944-6.0622928 7.113797-6.0622928 13.151625 0 7.727779 4.3964745 13.9996 10.062113 13.9996v-28.901175c0-3.625896 1.874947-6.465412 5.097655-8.97634 3.221708-2.511128 7.775578-4.113083 12.839433-4.113083s9.617725 1.601955 12.839633 4.113083c3.221908 2.510928 5.097855 5.350444 5.097855 8.97634v26.901232h-0.936688v-25.000114c-0.873975 0-1.562013 0.564012-2 1v24.000114h-5.55107c0.34199-0.589983 0.549985-1.265964 0.549985-1.999943v-1.999943c0-2.215936-1.78395-3.999885-3.999886-3.999885h-7.999772c-2.215937 0-3.999886 1.783949-3.999886 3.999885v1.999943c0 2.215937 1.783949 3.999886 3.999886 3.999886h19.999429v-4e-3c5.635839-0.046 9.999715-6.29582 9.999715-13.9956 0-6.037828-2.085604-11.187681-5.961493-13.151625v-1.74995c0-4.841862-2.537928-9.192537-6.441816-12.23445-3.903889-3.041714-9.794058-4.8552614-15.595892-4.8552614z" style="fill:#4f4f4f"/>
 <path d="m32 10.003906c-5.801834 0-11.592205 1.813755-15.496094 4.855469-3.903688 3.041913-6.441406 7.392513-6.441406 12.234375v1.75c-3.8750895 1.963944-6.0625 7.114516-6.0625 13.152344 0 7.727779 4.3968617 14 10.0625 14v-28.902344c0-3.625896 1.874948-6.465635 5.097656-8.976562 3.221708-2.511128 7.775989-4.113282 12.839844-4.113282s9.617936 1.602153 12.839844 4.113282c3.221908 2.510927 5.097656 5.350666 5.097656 8.976562v26.902344h-0.9375v-25c-0.873975 0-1.562013 0.564012-2 1v24h-5.550781c0.34199-0.589983 0.550781-1.266021 0.550781-2v-2c0-2.215936-1.784064-4-4-4h-8c-2.215937 0-4 1.784064-4 4v2c0 2.215937 1.784063 4 4 4h20v-0.0039c5.635839-0.046 10-6.296314 10-13.996094 0-6.037828-2.087002-11.1884-5.962891-13.152344v-1.75c0-4.841862-2.537518-9.192462-6.441406-12.234375-3.903889-3.04172-9.793869-4.855475-15.595703-4.855475zm-17 18.996094v27c0.800037 0 1.600074-0.143822 2-1v-25c-0.399926-0.42711-1.199963-1-2-1z" style="opacity:.2"/>
 <path d="m32 9.0039062c-5.801834 0-11.592205 1.8137548-15.496094 4.8554688-3.903688 3.041913-6.441406 7.392513-6.441406 12.234375v1.75c-3.8750895 1.963944-6.0625 7.114516-6.0625 13.152344 0 7.727779 4.3968617 14 10.0625 14v-28.902344c0-3.625896 1.874948-6.465635 5.097656-8.976562 3.221708-2.511128 7.775989-4.113282 12.839844-4.113282s9.617936 1.602153 12.839844 4.113282c3.221908 2.510927 5.097656 5.350666 5.097656 8.976562v26.902344h-0.9375v-25c-0.873975 0-1.562013 0.564012-2 1v24h-5.550781c0.34199-0.589983 0.550781-1.266021 0.550781-2v-2c0-2.215936-1.784064-4-4-4h-8c-2.215937 0-4 1.784064-4 4v2c0 2.215937 1.784063 4 4 4h20v-0.003906c5.635839-0.046 10-6.296314 10-13.996094 0-6.037828-2.087002-11.1884-5.962891-13.152344v-1.75c0-4.841862-2.537518-9.192462-6.441406-12.234375-3.903889-3.041714-9.793869-4.8554688-15.595703-4.8554688zm-17 18.996094v27c0.800037 0 1.600074-0.143822 2-1v-25c-0.399926-0.42711-1.199963-1-2-1z" style="fill:#4f4f4f"/>
 <path d="m32 9.0039062c-5.801834 0-11.592205 1.8137548-15.496094 4.8554688-3.903688 3.041913-6.441406 7.392513-6.441406 12.234375v1c0-4.841862 2.537718-9.192462 6.441406-12.234375 3.903889-3.041714 9.69426-4.855469 15.496094-4.855469s11.691814 1.813749 15.595703 4.855469c3.903888 3.041913 6.441406 7.392513 6.441406 12.234375v-1c0-4.841862-2.537518-9.192462-6.441406-12.234375-3.903889-3.041714-9.793869-4.8554688-15.595703-4.8554688zm-21.9375 18.839844c-3.8750895 1.963944-6.0625 7.114516-6.0625 13.152344 0 0.131781 0.0111302 0.259714 0.0136719 0.390625 0.1430151-5.771912 2.305383-10.645744 6.0488281-12.542969v-1zm43.974609 0v1c3.778226 1.914457 5.841019 6.864399 5.94336 12.705078 0.00508-0.18479 0.019531-0.366175 0.019531-0.552734 0-6.037828-2.087002-11.1884-5.962891-13.152344zm-5.037109 0.152344c-0.873975 0-1.562013 0.564012-2 1v1c0.437987-0.435988 1.126025-1 2-1v-1zm-34 0.003906v1c0.800037 0 1.600074 0.57289 2 1v-1c-0.399926-0.42711-1.199963-1-2-1zm15 16.996094c-2.215937 0-4 1.784064-4 4v1c0-2.215936 1.784063-4 4-4h8c2.215936 0 4 1.784064 4 4v-1c0-2.215936-1.784064-4-4-4h-8zm11.865234 8c-0.095179 0.354252-0.235948 0.689358-0.416015 1h5.550781v-1h-5.134766zm7.134766 0v1h0.9375v-1h-0.9375z" style="fill:#ffffff;opacity:.1"/>
</svg>

<svg xmlns="http://www.w3.org/2000/svg" width="64" height="64" version="1">
 <path style="fill:#4f4f4f" d="m 31.9996,9.0045566 c -5.801834,0 -11.591203,1.8135474 -15.495092,4.8552614 -3.903688,3.041913 -6.441416,7.392588 -6.441416,12.23445 l 0,1.74995 c -3.8750895,1.963944 -6.0622928,7.113797 -6.0622928,13.151625 0,7.727779 4.3964745,13.9996 10.0621128,13.9996 l 0,-28.901175 c 0,-3.625896 1.874947,-6.465412 5.097655,-8.97634 C 22.382275,14.6068 26.936145,13.004845 32,13.004845 c 5.063855,0 9.617725,1.601955 12.839633,4.113083 3.221908,2.510928 5.097855,5.350444 5.097855,8.97634 l 0,26.901232 -0.936688,0 0,-25.000114 c -0.873975,0 -1.562013,0.564012 -2,1 l 0,24.000114 -5.55107,0 c 0.34199,-0.589983 0.549985,-1.265964 0.549985,-1.999943 l 0,-1.999943 c 0,-2.215936 -1.78395,-3.999885 -3.999886,-3.999885 l -7.999772,0 c -2.215937,0 -3.999886,1.783949 -3.999886,3.999885 l 0,1.999943 c 0,2.215937 1.783949,3.999886 3.999886,3.999886 l 19.999429,0 0,-0.004 c 5.635839,-0.046 9.999715,-6.29582 9.999715,-13.9956 0,-6.037828 -2.085604,-11.187681 -5.961493,-13.151625 l 0,-1.74995 c 0,-4.841862 -2.537928,-9.192537 -6.441816,-12.23445 C 43.692003,10.818104 37.801834,9.0045566 32,9.0045566 Z"/>
 <path style="opacity:0.2" d="m 32,10.003906 c -5.801834,0 -11.592205,1.813755 -15.496094,4.855469 C 12.600218,17.901288 10.0625,22.251888 10.0625,27.09375 l 0,1.75 C 6.1874105,30.807694 4,35.958266 4,41.996094 c 0,7.727779 4.3968617,14 10.0625,14 l 0,-28.902344 c 0,-3.625896 1.874948,-6.465635 5.097656,-8.976562 C 22.381864,15.60606 26.936145,14.003906 32,14.003906 c 5.063855,0 9.617936,1.602153 12.839844,4.113282 3.221908,2.510927 5.097656,5.350666 5.097656,8.976562 l 0,26.902344 -0.9375,0 0,-25 c -0.873975,0 -1.562013,0.564012 -2,1 l 0,24 -5.550781,0 C 41.791209,53.406111 42,52.730073 42,51.996094 l 0,-2 c 0,-2.215936 -1.784064,-4 -4,-4 l -8,0 c -2.215937,0 -4,1.784064 -4,4 l 0,2 c 0,2.215937 1.784063,4 4,4 l 20,0 0,-0.0039 c 5.635839,-0.046 10,-6.296314 10,-13.996094 0,-6.037828 -2.087002,-11.1884 -5.962891,-13.152344 l 0,-1.75 c 0,-4.841862 -2.537518,-9.192462 -6.441406,-12.234375 C 43.691814,11.817661 37.801834,10.003906 32,10.003906 Z M 15,29 15,56 c 0.800037,0 1.600074,-0.143822 2,-1 l 0,-25 c -0.399926,-0.42711 -1.199963,-1 -2,-1 z"/>
 <path style="fill:#4f4f4f" d="M 32 9.0039062 C 26.198166 9.0039062 20.407795 10.817661 16.503906 13.859375 C 12.600218 16.901288 10.0625 21.251888 10.0625 26.09375 L 10.0625 27.84375 C 6.1874105 29.807694 4 34.958266 4 40.996094 C 4 48.723873 8.3968617 54.996094 14.0625 54.996094 L 14.0625 26.09375 C 14.0625 22.467854 15.937448 19.628115 19.160156 17.117188 C 22.381864 14.60606 26.936145 13.003906 32 13.003906 C 37.063855 13.003906 41.617936 14.606059 44.839844 17.117188 C 48.061752 19.628115 49.9375 22.467854 49.9375 26.09375 L 49.9375 52.996094 L 49 52.996094 L 49 27.996094 C 48.126025 27.996094 47.437987 28.560106 47 28.996094 L 47 52.996094 L 41.449219 52.996094 C 41.791209 52.406111 42 51.730073 42 50.996094 L 42 48.996094 C 42 46.780158 40.215936 44.996094 38 44.996094 L 30 44.996094 C 27.784063 44.996094 26 46.780158 26 48.996094 L 26 50.996094 C 26 53.212031 27.784063 54.996094 30 54.996094 L 50 54.996094 L 50 54.992188 C 55.635839 54.946188 60 48.695874 60 40.996094 C 60 34.958266 57.912998 29.807694 54.037109 27.84375 L 54.037109 26.09375 C 54.037109 21.251888 51.499591 16.901288 47.595703 13.859375 C 43.691814 10.817661 37.801834 9.0039062 32 9.0039062 z M 15 28 L 15 55 C 15.800037 55 16.600074 54.856178 17 54 L 17 29 C 16.600074 28.57289 15.800037 28 15 28 z"/>
 <path style="fill:#ffffff;opacity:0.1" d="M 32 9.0039062 C 26.198166 9.0039062 20.407795 10.817661 16.503906 13.859375 C 12.600218 16.901288 10.0625 21.251888 10.0625 26.09375 L 10.0625 27.09375 C 10.0625 22.251888 12.600218 17.901288 16.503906 14.859375 C 20.407795 11.817661 26.198166 10.003906 32 10.003906 C 37.801834 10.003906 43.691814 11.817655 47.595703 14.859375 C 51.499591 17.901288 54.037109 22.251888 54.037109 27.09375 L 54.037109 26.09375 C 54.037109 21.251888 51.499591 16.901288 47.595703 13.859375 C 43.691814 10.817661 37.801834 9.0039062 32 9.0039062 z M 10.0625 27.84375 C 6.1874105 29.807694 4 34.958266 4 40.996094 C 4 41.127875 4.0111302 41.255808 4.0136719 41.386719 C 4.156687 35.614807 6.3190549 30.740975 10.0625 28.84375 L 10.0625 27.84375 z M 54.037109 27.84375 L 54.037109 28.84375 C 57.815335 30.758207 59.878128 35.708149 59.980469 41.548828 C 59.985549 41.364038 60 41.182653 60 40.996094 C 60 34.958266 57.912998 29.807694 54.037109 27.84375 z M 49 27.996094 C 48.126025 27.996094 47.437987 28.560106 47 28.996094 L 47 29.996094 C 47.437987 29.560106 48.126025 28.996094 49 28.996094 L 49 27.996094 z M 15 28 L 15 29 C 15.800037 29 16.600074 29.57289 17 30 L 17 29 C 16.600074 28.57289 15.800037 28 15 28 z M 30 44.996094 C 27.784063 44.996094 26 46.780158 26 48.996094 L 26 49.996094 C 26 47.780158 27.784063 45.996094 30 45.996094 L 38 45.996094 C 40.215936 45.996094 42 47.780158 42 49.996094 L 42 48.996094 C 42 46.780158 40.215936 44.996094 38 44.996094 L 30 44.996094 z M 41.865234 52.996094 C 41.770055 53.350346 41.629286 53.685452 41.449219 53.996094 L 47 53.996094 L 47 52.996094 L 41.865234 52.996094 z M 49 52.996094 L 49 53.996094 L 49.9375 53.996094 L 49.9375 52.996094 L 49 52.996094 z"/>
</svg>
